X: 16729
T: Harbour Of Polperro, The
R: waltz
M: 3/4
K: Edorian
Bg gf e2|Bg gf dB/A/|Bg gf ef|ga dc d2|
Bg gf e2|Bf fe d=c/B/|=ca gf ed|=cB BA GF|
EB de c2|EB dc AG/F/|G.d. dG AG|FD F2 ED|
EB de c2|EB dc AG/F/|Ge dc BA|GF FE DE|

